packages/foundations/assets/icons/functional/images/buildings/market.svg

<svg xmlns="http://www.w3.org/2000/svg" width="32" height="32" fill="none"><path fill="#1A1C1F" fill-rule="evenodd" d="M7.346 4.057a2.1 2.1 0 0 0-1.305 1.034c-.101.199-.316 1.128-.83 3.575-.635 3.031-.693 3.354-.693 3.867 0 .46.025.637.14.987.194.594.476 1.048.929 1.496l.386.382v10.615l-.225.036c-.286.046-.658.411-.712.699-.09.481.123.945.524 1.139l.234.113 10.21-.001c9.914-.001 10.216-.004 10.432-.103.421-.19.656-.776.501-1.246-.087-.264-.43-.56-.696-.603l-.214-.034V15.404l.386-.385c.724-.72 1.068-1.52 1.07-2.486.001-.514-.055-.826-.679-3.813q-.68-3.253-.815-3.559c-.168-.378-.593-.793-1.016-.991l-.306-.143-8.56-.009c-4.866-.004-8.647.012-8.761.039M24.842 9.16c.358 1.723.652 3.243.652 3.377a1.456 1.456 0 0 1-1.437 1.45c-.547.006-1.143-.363-1.726-1.069l-.327-.395-.126.152c-.688.832-1.095 1.16-1.581 1.273-.671.156-1.284-.186-2.087-1.166l-.212-.258-.35.418c-1.161 1.386-2.137 1.381-3.307-.016l-.338-.403-.125.152c-.688.832-1.095 1.16-1.581 1.273-.701.163-1.257-.162-2.174-1.272l-.124-.151-.348.418c-.751.903-1.391 1.192-2.162.976-.375-.105-.784-.517-.897-.902a2.2 2.2 0 0 1-.086-.48c0-.105.294-1.612.653-3.35l.653-3.16h16.377zm-13.935 6.661c.379.133.5.15 1.093.15s.714-.017 1.093-.15a4.3 4.3 0 0 0 .667-.296l.241-.148.239.149c.132.082.444.217.693.299.39.127.54.148 1.067.148s.677-.021 1.067-.148c.249-.082.561-.217.693-.299l.239-.149.241.148c.132.081.432.214.667.296.379.133.5.15 1.093.15s.714-.017 1.093-.15a4.3 4.3 0 0 0 .667-.296l.24-.147.261.154c.357.211.949.402 1.38.446l.359.037V20H8v-3.985l.373-.034c.409-.038 1.087-.264 1.415-.472l.21-.133.241.148c.133.082.433.215.668.297M24 24.027v2H8v-4h16z"/></svg>

<svg width="32" height="32" viewBox="0 0 32 32" fill="none" xmlns="http://www.w3.org/2000/svg"><path d="M7.346 4.057 C 6.816 4.184,6.290 4.600,6.041 5.091 C 5.940 5.290,5.725 6.219,5.211 8.666 C 4.576 11.697,4.518 12.020,4.518 12.533 C 4.518 12.993,4.543 13.170,4.658 13.520 C 4.852 14.114,5.134 14.568,5.587 15.016 L 5.973 15.398 5.973 20.706 L 5.973 26.013 5.748 26.049 C 5.462 26.095,5.090 26.460,5.036 26.748 C 4.946 27.229,5.159 27.693,5.560 27.887 L 5.794 28.000 16.004 27.999 C 25.918 27.998,26.220 27.995,26.436 27.896 C 26.857 27.706,27.092 27.120,26.937 26.650 C 26.850 26.386,26.507 26.090,26.241 26.047 L 26.027 26.013 26.027 20.709 L 26.027 15.404 26.413 15.019 C 27.137 14.299,27.481 13.499,27.483 12.533 C 27.484 12.019,27.428 11.707,26.804 8.720 C 26.351 6.551,26.079 5.365,25.989 5.161 C 25.821 4.783,25.396 4.368,24.973 4.170 L 24.667 4.027 16.107 4.018 C 11.241 4.014,7.460 4.030,7.346 4.057 M24.842 9.160 C 25.200 10.883,25.494 12.403,25.494 12.537 C 25.493 13.329,24.848 13.980,24.057 13.987 C 23.510 13.993,22.914 13.624,22.331 12.918 L 22.004 12.523 21.878 12.675 C 21.190 13.507,20.783 13.835,20.297 13.948 C 19.626 14.104,19.013 13.762,18.210 12.782 L 17.998 12.524 17.648 12.942 C 16.487 14.328,15.511 14.323,14.341 12.926 L 14.003 12.523 13.878 12.675 C 13.190 13.507,12.783 13.835,12.297 13.948 C 11.596 14.111,11.040 13.786,10.123 12.676 L 9.999 12.525 9.651 12.943 C 8.900 13.846,8.260 14.135,7.489 13.919 C 7.114 13.814,6.705 13.402,6.592 13.017 C 6.545 12.858,6.506 12.642,6.506 12.537 C 6.506 12.432,6.800 10.925,7.159 9.187 L 7.812 6.027 16.001 6.027 L 24.189 6.027 24.842 9.160 M10.907 15.821 C 11.286 15.954,11.407 15.971,12.000 15.971 C 12.593 15.971,12.714 15.954,13.093 15.821 C 13.328 15.739,13.628 15.606,13.760 15.525 L 14.001 15.377 14.240 15.526 C 14.372 15.608,14.684 15.743,14.933 15.825 C 15.323 15.952,15.473 15.973,16.000 15.973 C 16.527 15.973,16.677 15.952,17.067 15.825 C 17.316 15.743,17.628 15.608,17.760 15.526 L 17.999 15.377 18.240 15.525 C 18.372 15.606,18.672 15.739,18.907 15.821 C 19.286 15.954,19.407 15.971,20.000 15.971 C 20.593 15.971,20.714 15.954,21.093 15.821 C 21.328 15.739,21.628 15.606,21.760 15.525 L 22.000 15.378 22.261 15.532 C 22.618 15.743,23.210 15.934,23.641 15.978 L 24.000 16.015 24.000 18.007 L 24.000 20.000 16.000 20.000 L 8.000 20.000 8.000 18.008 L 8.000 16.015 8.373 15.981 C 8.782 15.943,9.460 15.717,9.788 15.509 L 9.998 15.376 10.239 15.524 C 10.372 15.606,10.672 15.739,10.907 15.821 M24.000 24.027 L 24.000 26.027 16.000 26.027 L 8.000 26.027 8.000 24.027 L 8.000 22.027 16.000 22.027 L 24.000 22.027 24.000 24.027 " fill="#1A1C1F" stroke="none" fill-rule="evenodd"></path></svg>
